src/icons/clock.svg

<svg width="30" height="30" viewBox="0 0 30 30" fill="none" xmlns="http://www.w3.org/2000/svg">
<path d="M15.1104 27.885C22.163 27.885 27.8854 22.1627 27.8854 15.11C27.8854 8.05744 22.163 2.33505 15.1104 2.33505C8.05775 2.33505 2.33535 8.05744 2.33535 15.11C2.33535 22.1627 8.05775 27.885 15.1104 27.885ZM15.1104 4.64049C20.8907 4.64049 25.5799 9.32972 25.5799 15.11C25.5799 20.8904 20.8907 25.5796 15.1104 25.5796C9.33003 25.5796 4.6408 20.8904 4.6408 15.11C4.6408 9.32972 9.33003 4.64049 15.1104 4.64049Z" fill="#BDBDBD" stroke="#BDBDBD" stroke-width="0.55" stroke-linecap="square"/>
<path d="M19.2123 17.7976L19.2123 17.7976L19.2096 17.7956L15.6877 15.1541V8.66325C15.6877 8.02711 15.1711 7.51052 14.535 7.51052C13.8988 7.51052 13.3822 8.02711 13.3822 8.66325V15.7153C13.3822 16.0596 13.5332 16.4213 13.8273 16.6331L17.8473 19.6556C18.0475 19.8145 18.2885 19.8947 18.5301 19.8947C18.8749 19.8947 19.2404 19.7428 19.4522 19.4137C19.8445 18.892 19.7138 18.1833 19.2123 17.7976Z" fill="#BDBDBD" stroke="#BDBDBD" stroke-width="0.55" stroke-linecap="square"/>
</svg>

<?xml version="1.0" standalone="no"?><!DOCTYPE svg PUBLIC "-//W3C//DTD SVG 1.1//EN" "http://www.w3.org/Graphics/SVG/1.1/DTD/svg11.dtd"><svg width="100%" height="100%" viewBox="0 0 30 30" version="1.1" xmlns="http://www.w3.org/2000/svg" xmlns:xlink="http://www.w3.org/1999/xlink" xml:space="preserve" style="fill-rule:evenodd;clip-rule:evenodd;stroke-linecap:square;stroke-miterlimit:1.41421;"><path d="M15.11,27.885c7.053,0 12.775,-5.722 12.775,-12.775c0,-7.053 -5.722,-12.775 -12.775,-12.775c-7.052,0 -12.775,5.722 -12.775,12.775c0,7.053 5.723,12.775 12.775,12.775ZM15.11,4.64c5.781,0 10.47,4.69 10.47,10.47c0,5.78 -4.689,10.47 -10.47,10.47c-5.78,0 -10.469,-4.69 -10.469,-10.47c0,-5.78 4.689,-10.47 10.469,-10.47Z" style="fill:#9e9e9e;fill-rule:nonzero;stroke-width:0.55px;stroke:#9e9e9e;"/><path d="M19.212,17.798l-0.002,-0.002l-3.522,-2.642l0,-6.491c0,-0.636 -0.517,-1.152 -1.153,-1.152c-0.636,0 -1.153,0.516 -1.153,1.152l0,7.052c0,0.345 0.151,0.706 0.445,0.918l4.02,3.023c0.2,0.158 0.441,0.239 0.683,0.239c0.345,0 0.71,-0.152 0.922,-0.481c0.392,-0.522 0.262,-1.231 -0.24,-1.616Z" style="fill:#9e9e9e;fill-rule:nonzero;stroke-width:0.55px;stroke:#9e9e9e;"/></svg>
